suite-common/icons/assets/icons/standardWallet.svg

<svg xmlns="http://www.w3.org/2000/svg" xml:space="preserve" fill="none" viewBox="0 0 24 24">
  <path fill="#000" fill-rule="evenodd" d="M4.84 3.788c-.657.11-1.285.588-1.607 1.225-.241.478-.232.193-.232 6.987 0 5.187.01 6.264.057 6.485.152.72.702 1.353 1.416 1.631l.266.104 7.82.012c5.706.009 7.877 0 8.03-.033.445-.095.879-.466 1.054-.9l.096-.239V7.94l-.096-.239c-.151-.375-.506-.713-.924-.88-.065-.026-2.857-.047-7.9-.06l-7.8-.021-.15-.093a.765.765 0 0 1-.022-1.277l.166-.11 6.623-.02c4.933-.015 6.643-.032 6.703-.067.106-.061.278-.248.341-.371.07-.135.063-.479-.012-.623a.9.9 0 0 0-.402-.376c-.078-.03-2.136-.041-6.72-.038-3.634.003-6.652.013-6.707.023m7.65 4.443 7.75.01v10.52l-7.61-.011-7.61-.01-.15-.093a1 1 0 0 1-.26-.28l-.11-.187-.011-4.979c-.006-2.739-.002-5.002.009-5.03.015-.04.041-.04.131-.001.087.039 1.804.052 7.861.061m4.127 4.346c-.183.079-.41.294-.508.479-.121.229-.121.659 0 .888.1.19.328.402.517.481.169.071.579.071.748 0 .189-.079.417-.291.517-.481.065-.123.087-.234.087-.444s-.022-.321-.087-.444c-.1-.19-.328-.402-.517-.481-.166-.07-.596-.069-.757.002"/>
</svg>

<svg xmlns="http://www.w3.org/2000/svg" xml:space="preserve" fill="none" viewBox="0 0 24 24"><path d="M4.840 3.788 C 4.183 3.898,3.555 4.376,3.233 5.013 C 2.992 5.491,3.001 5.206,3.001 12.000 C 3.001 17.187,3.011 18.264,3.058 18.485 C 3.210 19.205,3.760 19.838,4.474 20.116 L 4.740 20.220 12.560 20.232 C 18.266 20.241,20.437 20.232,20.590 20.199 C 21.035 20.104,21.469 19.733,21.644 19.299 L 21.740 19.060 21.740 13.500 L 21.740 7.940 21.644 7.701 C 21.493 7.326,21.138 6.988,20.720 6.821 C 20.655 6.795,17.863 6.774,12.820 6.761 L 5.020 6.740 4.870 6.647 C 4.407 6.359,4.395 5.670,4.848 5.370 L 5.014 5.260 11.637 5.240 C 16.570 5.225,18.280 5.208,18.340 5.173 C 18.446 5.112,18.618 4.925,18.681 4.802 C 18.751 4.667,18.744 4.323,18.669 4.179 C 18.588 4.024,18.409 3.856,18.267 3.803 C 18.189 3.773,16.131 3.762,11.547 3.765 C 7.913 3.768,4.895 3.778,4.840 3.788 M12.490 8.231 L 20.240 8.241 20.240 13.501 L 20.240 18.761 12.630 18.750 L 5.020 18.740 4.870 18.647 C 4.787 18.595,4.670 18.469,4.610 18.367 L 4.500 18.180 4.489 13.201 C 4.483 10.462,4.487 8.199,4.498 8.171 C 4.513 8.131,4.539 8.131,4.629 8.170 C 4.716 8.209,6.433 8.222,12.490 8.231 M16.617 12.577 C 16.434 12.656,16.207 12.871,16.109 13.056 C 15.988 13.285,15.988 13.715,16.109 13.944 C 16.209 14.134,16.437 14.346,16.626 14.425 C 16.795 14.496,17.205 14.496,17.374 14.425 C 17.563 14.346,17.791 14.134,17.891 13.944 C 17.956 13.821,17.978 13.710,17.978 13.500 C 17.978 13.290,17.956 13.179,17.891 13.056 C 17.791 12.866,17.563 12.654,17.374 12.575 C 17.208 12.505,16.778 12.506,16.617 12.577 " stroke="none" fill-rule="evenodd" fill="black"></path></svg>
